svg/300/sharp/app_blocking-fill.svg

<svg xmlns="http://www.w3.org/2000/svg" width="48" height="48" viewBox="0 -960 960 960"><path d="M709.999-326.154q-63.692 0-108.769-45.077Q556.154-416.308 556.154-480q0-63.692 45.076-108.769 45.077-45.077 108.769-45.077 63.692 0 108.769 45.077Q863.845-543.692 863.845-480q0 63.692-45.077 108.769-45.077 45.077-108.769 45.077Zm0-40.384q17.695 0 34.348-4.962Q761-376.461 774.923-387L616.999-544.924q-9.923 14.924-15.192 30.919-5.27 15.996-5.27 33.39 0 47.154 33.054 80.615 33.054 33.462 80.408 33.462Zm94-48.538q10.308-15.308 14.885-31.248 4.577-15.94 4.577-33.676 0-47.354-33.054-80.408t-80.408-33.054q-17.694 0-34.347 4.962-16.653 4.961-30.576 14.5l158.923 158.924ZM220.001-60.001V-900h519.998v193.692h-45.384v-60.231h-429.23v573.076h429.23v-60.231h45.384v193.692H220.001Z"/></svg>

<svg xmlns="http://www.w3.org/2000/svg" width="48" height="48" viewBox="0 -960 960 960"><path d="M710-326.15q-63.69 0-108.77-45.08T556.15-480q0-63.69 45.08-108.77T710-633.85q63.69 0 108.77 45.08 45.07 45.08 45.07 108.77t-45.07 108.77Q773.69-326.15 710-326.15Zm0-40.39q17.69 0 34.35-4.96 16.65-4.96 30.57-15.5L617-544.92Q607.08-530 601.81-514q-5.27 15.99-5.27 33.38 0 47.16 33.05 80.62 33.06 33.46 80.41 33.46Zm94-48.54q10.31-15.3 14.88-31.24 4.58-15.94 4.58-33.68 0-47.35-33.05-80.41-33.06-33.05-80.41-33.05-17.7 0-34.35 4.96-16.65 4.96-30.57 14.5L804-415.08ZM220-60v-840h520v193.69h-45.39v-60.23H265.39v573.08h429.22v-60.23H740V-60H220Z"/></svg>
